svg/education/compass_2_line.svg

<?xml version="1.0" encoding="UTF-8"?>
<svg width="24px" height="24px" viewBox="0 0 24 24" version="1.1" xmlns="http://www.w3.org/2000/svg" xmlns:xlink="http://www.w3.org/1999/xlink">
    <title>compass_line</title>
    <g id="Icon" stroke="none" stroke-width="1" fill="none" fill-rule="evenodd">
        <g id="Education" transform="translate(-384.000000, -96.000000)">
            <g id="compass_line" transform="translate(384.000000, 96.000000)">
                <path d="M24,0 L24,24 L0,24 L0,0 L24,0 Z M12.5935,23.2578 L12.5819,23.2595 L12.5109,23.295 L12.4919,23.2987 L12.4767,23.295 L12.4057,23.2595 C12.3958,23.2564 12.387,23.259 12.3821,23.2649 L12.378,23.2758 L12.3609,23.7031 L12.3659,23.7235 L12.3769,23.7357 L12.4805,23.8097 L12.4953,23.8136 L12.5071,23.8097 L12.6107,23.7357 L12.6233,23.7197 L12.6267,23.7031 L12.6096,23.2758 C12.6076,23.2657 12.601,23.2593 12.5935,23.2578 Z M12.8584,23.1453 L12.8445,23.1473 L12.6598,23.2397 L12.6499,23.2499 L12.6472,23.2611 L12.6651,23.6906 L12.6699,23.7034 L12.6784,23.7105 L12.8793,23.8032 C12.8914,23.8069 12.9022,23.803 12.9078,23.7952 L12.9118,23.7812 L12.8777,23.1665 C12.8753,23.1546 12.8674,23.147 12.8584,23.1453 Z M12.143,23.1473 C12.1332,23.1424 12.1222,23.1453 12.1156,23.1526 L12.1099,23.1665 L12.0758,23.7812 C12.0751,23.7927 12.0828,23.8019 12.0926,23.8046 L12.1083,23.8032 L12.3092,23.7105 L12.3186,23.7024 L12.3225,23.6906 L12.3404,23.2611 L12.3372,23.2485 L12.3278,23.2397 L12.143,23.1473 Z" id="MingCute" fill-rule="nonzero"></path>
                <path d="M12,2 C12.51285,2 12.9355092,2.38604429 12.9932725,2.88337975 L13,3 L13,5.17071 C14.1652,5.58254 15,6.69378 15,8 C15,8.84276923 14.6525254,9.60437018 14.0929376,10.1493471 L13.9487,10.281 L15.7833,15.0509 C16.6069,14.6081 17.344,14.0249 17.9633,13.3331 C18.3316,12.9216 18.9638,12.8865 19.3753,13.2549 C19.7868,13.6232 19.8219,14.2554 19.4535,14.6669 C18.7171444,15.4896556 17.8459938,16.190021 16.8747433,16.7332309 L16.5059,16.9295 L17.9334,20.641 C18.1316,21.1565 17.8745,21.7351 17.359,21.9333 C16.8803214,22.1174357 16.3472352,21.9088189 16.1148323,21.4654189 L16.0667,21.359 L14.6393,17.6479 C13.7985,17.8774 12.9135,18 12.0001,18 C11.2179571,18 10.4558714,17.91 9.72408239,17.739635 L9.36076,17.6478 L7.93337,21.359 C7.73511,21.8744 7.15652,22.1316 6.64105,21.9333 C6.16239,21.7492571 5.90647372,21.2372163 6.03109445,20.7522685 L6.06668,20.641 L10.0513,10.281 C9.40787,9.73074 9.00003,8.913 9.00003,8 C9.00003,6.759091 9.753437,5.69415145 10.8277653,5.23766702 L11,5.17071 L11,3 C11,2.44772 11.4477,2 12,2 Z M13.9167,15.7691 L12.082,10.9989 L12,11 L11.918,10.9989 L10.0833,15.7691 C10.6967,15.9199 11.3385,16 12.0001,16 C12.6608,16 13.3027,15.92 13.9167,15.7691 Z M12,7 C11.4477,7 11,7.44772 11,8 C11,8.55228 11.4477,9 12,9 C12.5523,9 13,8.55228 13,8 C13,7.44772 12.5523,7 12,7 Z" id="形状" fill="#09244B"></path>
            </g>
        </g>
    </g>
</svg>

<svg xmlns="http://www.w3.org/2000/svg" width="24" height="24"><g fill="none" fill-rule="evenodd"><path d="M24 0v24H0V0h24ZM12.594 23.258l-.012.002-.071.035-.02.004-.014-.004-.071-.036c-.01-.003-.019 0-.024.006l-.004.01-.017.428.005.02.01.013.104.074.015.004.012-.004.104-.074.012-.016.004-.017-.017-.427c-.002-.01-.009-.017-.016-.018Zm.264-.113-.014.002-.184.093-.01.01-.003.011.018.43.005.012.008.008.201.092c.012.004.023 0 .029-.008l.004-.014-.034-.614c-.003-.012-.01-.02-.02-.022Zm-.715.002a.023.023 0 0 0-.027.006l-.006.014-.034.614c0 .012.007.02.017.024l.015-.002.201-.093.01-.008.003-.011.018-.43-.003-.012-.01-.01-.184-.092Z"/><path fill="#09244B" d="M12 2a1 1 0 0 1 .993.883L13 3v2.17a3.001 3.001 0 0 1 1.093 4.98l-.144.131 1.834 4.77a8.034 8.034 0 0 0 2.18-1.718 1 1 0 1 1 1.49 1.334 10.04 10.04 0 0 1-2.578 2.066l-.37.197 1.428 3.711a1 1 0 0 1-1.818.824l-.048-.106-1.428-3.711c-.84.23-1.725.352-2.639.352-.782 0-1.544-.09-2.276-.26l-.363-.092-1.428 3.711a1 1 0 0 1-1.902-.607l.036-.111 3.984-10.36a3 3 0 0 1 .776-5.043L11 5.17V3a1 1 0 0 1 1-1Zm1.917 13.77-1.835-4.771L12 11l-.082-.001-1.835 4.77A8.02 8.02 0 0 0 12 16c.66 0 1.303-.08 1.917-.23ZM12 7a1 1 0 1 0 0 2 1 1 0 0 0 0-2Z"/></g></svg>
